X:1
T:Donna, che con l'ardent'
T:Luca Marenzio
T:Source : Il quinto libro delle Villanelle a tre voci---Venetia---Herede di G.Scotto---1587. Editor : André Vierendeels (06/06/17).
T:Notes : Original clefs : G2, C1, F3 Editorial accidentals above the staff Square bracket indicates ligature Music collected by Attilio Gualtieri
T:Donna, che con l'ardent'
T:©
T:©
C:Luca Marenzio
Z:©
%%score [ 1 2 3 ]
L:1/8
Q:1/4=120
M:4/4
K:C
V:1 treble nm="Soprano 1" snm="S 1"
V:2 treble nm="Soprano 2" snm="S 2"
V:3 bass nm="Bass" snm="B"
V:1
"^1)" d8 | B8 | d2 dc d2 e2 | c3 c cdef | g2 e2 d4 | c8 :: z2 e2 g3 f | e4 d4 | d3 e c2 d2 | %9
w: Don-|na,|Don- na che con l'ar-|dent' a- cu- * * *|* to stra-|le,|de bei vo-|str'oc- chi|mi fe- ri- ste'il|
w: Voi|mi|fe- ri- st'e di cio|son con- ten- * * *||to,|che piu glo-|ria che|san- gue spe- ro'an-|
 B4 B4 | z4 e4- | e4 g3 f | e2 d2 d4- | d4 A4 | c4 c4 | B8 | A8 | G8 :| %18
w: co- re,|dhe|_ pren- da-|vi pie- tà|_ del|mio do-|lo-||re.|
w: co- ra,|di|_ tal pia-|ga ver- sar'|_ an-|zi ch'io|mo-||ra.|
V:2
"^2)""^1)" B8 | G8 | B2 BA B2 c2 | A3 G ABcA | B2 c4 B2 | c8 :: z2 c2 e2 d2 | ^c4 d4 | %8
w: Don-|na,|Don- na che con l'ar-|dent' a- cu- * * *|* to stra-|le,|de bei vo-|str'oc- chi|
w: Sol|la|do- glia ond' il cor|strg- ger mi _ _ _|sen- * *|to,|e ch'a vo-|stro gran|
"^-natural" B3 c A2 A2 | ^G4 G4 | z4 c4- | c4 e3 d | c2 A2 B4 | A8 | A2 E2 A4- | A2 G2 G4- | %16
w: mi fe- ri- ste'il|co- re,|dhe|_ pren- da-|vi pie- tà|del|mio do- lo-||
w: bias- mo'il mon- do|di- ca,|che|_ voi sia-|te'a chi v'a-|m'as-|pra ne- mi-||
 G2 ^FE F4 | G8 :| %18
w: |re.|
w: |ca.|
V:3
"^3)""^1)""^4)" G,8 | G,,8 | G,2 G,A, G,2 E,2 | F,3 E, F,2 A,2 | G,8 | C,8 :: C4 G,2 G,2 | %7
w: Don-|na,|Don- na che con l'ar-|dent' a- cu- *||to,|de bei vo-|
w: Pen-|ti-|te- vi di dar- mi|tan- te pe- *||ne,|e por- ge-|
 A,4 D,4 | G,3 A, F,2 D,2 | E,4 E,4 | z4 C,4- | C,4 C,3 D, | E,2 F,2 G,4 | D,8 | A,,4 A,,4 | %15
w: str'oc- chi|mi fe- ri- ste'il|co- re,|dhe|_ pren- da-|vi pie- ta|del|mio do-|
w: te soc-|cor- so'al cor che|mo- re,|non|_ per ch'io|vi- va ma|per|vo- stro'a-|
 B,,6 C,2 | D,8 | G,8 :| %18
w: lo- *||re.|
w: mo- *||re.|

